<?xml version="1.0" encoding="UTF-8"?>
<map version="1.2" tiledversion="1.2.1" orientation="orthogonal" renderorder="right-down" width="10" height="10" tilewidth="1" tileheight="1" infinite="0" nextlayerid="2" nextobjectid="1">
 <tileset firstgid="1" source="../../tilesets/common/pallete16_4.tsx"/>
 <layer id="1" name="Background" width="10" height="10">
  <data encoding="csv">
12,8,12,12,12,12,12,12,12,12,
8,8,8,12,4,4,12,12,12,12,
12,8,12,12,12,12,12,1,12,4,
12,12,12,12,12,12,1,1,1,12,
12,12,12,12,12,1,1,1,1,1,
12,12,9,12,12,12,6,6,6,12,
12,9,9,9,12,12,6,6,6,12,
7,7,7,7,7,7,7,7,7,7,
7,7,7,7,7,7,7,7,7,7,
7,7,7,7,7,7,7,7,7,7
</data>
 </layer>
</map>
